X:136
T:Valse n1
R:Valse
S:Carnet du tambourinaire Ginas (1924)
O:France
A:Provence
C:
Z:Transcrit et/ou corrig par Michel BELLON - 2005-06-04
Z:Pour toute observation mailto:galouvielle@free.fr
M:3/4
L:1/4
K:F
F | fff | f2e | ddd | d2B | ccc | c2d | B2B | fzF | fff | f2e | ddd | d2B | ccc | c2d | B3 | Bzz |
ccc | cd=e | f3 | c3 | BBB | dcB | A3 | Azz | ccc | cd=e | (f3 | c3) | GAB | cd=e | f3 | fzF |
B3 | c2e | d3 | f3 | e3 | d3 | c3- | czz | e2e | efg | f3 | d3 | def | ged | c3- | czz | ccc | cdc | B3 | fzz |
c2z | c2z | fzz | zzF | B3 | c2e | d3 | f3 | e3 | d3 | g3- | gfe | d3 | c3 | B3- | Bz S |]
%%footer $D   Galouvielle-MBe 2005 \nValse France
